icons/lines/box-search.svg

<svg xmlns="http://www.w3.org/2000/svg" width="24" height="24" viewBox="0 0 24 24" fill="none" stroke="currentColor" stroke-width="2" stroke-linecap="round" stroke-linejoin="round" >
  <path d="M3.16992 7.43994L11.9999 12.5499L20.7699 7.46991"/>
  <path d="M12 21.6099V12.5399"/>
  <path d="M21.6101 12.83V9.17C21.6101 7.79 20.6201 6.11002 19.4101 5.44002L14.0701 2.48C12.9301 1.84 11.0701 1.84 9.93011 2.48L4.59012 5.44002C3.38012 6.11002 2.39014 7.79 2.39014 9.17V14.83C2.39014 16.21 3.38012 17.89 4.59012 18.56L9.93011 21.52C10.5001 21.84 11.2501 22 12.0001 22C12.7501 22 13.5001 21.84 14.0701 21.52"/>
  <path d="M19.2 21.4C20.9673 21.4 22.4 19.9673 22.4 18.2C22.4 16.4327 20.9673 15 19.2 15C17.4327 15 16 16.4327 16 18.2C16 19.9673 17.4327 21.4 19.2 21.4Z"/>
  <path d="M23 22L22 21"/>
  </svg>

<svg xmlns="http://www.w3.org/2000/svg" width="24" height="24" viewBox="0 0 24 24" fill="none" stroke="currentColor" stroke-width="2" stroke-linecap="round" stroke-linejoin="round">
  <path d="M12 21.61v-9.07" />
  <path d="M21.61 12.83V9.17c0-1.38-.99-3.06-2.2-3.73l-5.34-2.96c-1.14-.64-3-.64-4.14 0L4.59 5.44c-1.21.67-2.2 2.35-2.2 3.73v5.66c0 1.38.99 3.06 2.2 3.73l5.34 2.96c.57.32 1.32.48 2.07.48s1.5-.16 2.07-.48" />
  <path d="m23 22-1-1" />
  <path d="M3.17 7.44 12 12.55l8.77-5.08" />
  <circle cx="19.2" cy="18.2" r="3.2" />
</svg>
